modules/themify-icons/icons/timer.svg

<?xml version="1.0" encoding="utf-8"?>
<!-- Generated by IcoMoon.io -->
<!DOCTYPE svg PUBLIC "-//W3C//DTD SVG 1.1//EN" "http://www.w3.org/Graphics/SVG/1.1/DTD/svg11.dtd">
<svg version="1.1" xmlns="http://www.w3.org/2000/svg" xmlns:xlink="http://www.w3.org/1999/xlink" width="17" height="17" viewBox="0 0 17 17">
<g>
</g>
	<path d="M9 2.025v-1.025h1.5v-1h-4v1h1.5v1.025c-3.902 0.26-7 3.508-7 7.475 0 4.136 3.364 7.5 7.5 7.5s7.5-3.364 7.5-7.5c0-3.967-3.098-7.215-7-7.475zM8.5 16c-3.584 0-6.5-2.916-6.5-6.5s2.916-6.5 6.5-6.5 6.5 2.916 6.5 6.5-2.916 6.5-6.5 6.5zM9 9h4v1h-5v-4h1v3z" fill="#000000" />
</svg>

<svg xmlns="http://www.w3.org/2000/svg" width="17" height="17"><path d="M9 2.025V1h1.5V0h-4v1H8v1.025c-3.902.26-7 3.508-7 7.475C1 13.636 4.364 17 8.5 17S16 13.636 16 9.5c0-3.967-3.098-7.215-7-7.475zM8.5 16C4.916 16 2 13.084 2 9.5S4.916 3 8.5 3 15 5.916 15 9.5 12.084 16 8.5 16zM9 9h4v1H8V6h1v3z"/></svg>
